X: 78
T: No_175_He_Gave_Us_a_Double_Crack.krn
N: Derived from No_175_He_Gave_Us_a_Double_Crack.krn
%%abc-version 2.0
%%abcx-abcm2ps-target-version 5.9.1 (29 Sep 2008)
%%abc-creator hum2abc beta
%%abcx-conversion-date 2019/03/15 08:29:13
%%humdrum-veritas 4210421223
%%humdrum-veritas-data 3162140535
%%linebreak <none>
%%barnumbers 0
L: 1/8
M: 3/4
%%staves {1 2}
V: 1 clef=treble
V: 2 clef=bass
K: E
[V:1] [K:clef=treble][M:3/4]B2G2B/G3/ | 
[V:2] [K:clef=bass][M:3/4](3!accent!G,, z G,, (3!accent!G,, z G,, (3!accent!G,, z G,, | 
[V:1] E/E3/E4 | 
[V:2] z6 | 
[V:1] GEF3G/F/ | 
[V:2] z6 | 
[V:1] (3ECCC4 | 
[V:2] z6 | 
[V:1] E/F/E/C/ (E3/ z/z2 | 
[V:2] z2z3/ G,/ (3G,F,E, | 
[V:1] z6 | 
[V:2] F,6 | 
[V:1] z6x6 | 
[V:2] {/B,}G,3F,/E,/ F,E, | 
[V:1] z6 |]  
[V:2] C,/C,3/C,4 |]  



